X: 3
T: The Templehouse
R: reel
M: 4/4
L: 1/8
K: Emin
|EFGA BE (3GFE|D2FD ADFD|EFGA BAB^c|dBAc BEED||EFGA BE (3GFE|D2 (3FED AD (3FED|EFGA BAB^c|dBAc Beef||g2ef gfeg|f2df afdf|gfef gfed|B2Ac BE~E2|gfef gfeg|f2df afdf|edef gfed|B2Ac BEED||


Tune 827	Setting 26744

